dist/intermediate-svg/conversion.svg

<?xml version="1.0" encoding="utf-8"?><svg width="24" height="24" fill="none" xmlns="http://www.w3.org/2000/svg" viewBox="0 0 24 24"><path d="M5.24262 18.3137C0.999976 14.0711 4.77121 10.2998 6.65683 8.41422L8.77815 10.5355C7.36394 11.9497 5.24262 14.0711 7.36394 16.1924C9.06099 17.8894 11.6066 16.1924 13.0208 14.7782L15.1421 16.8995C13.2565 18.7851 9.48526 22.5564 5.24262 18.3137Z" stroke="#333"/><path transform="rotate(45 8.07104 7)" stroke="#333" d="M8.071 7H11.071V9H8.071z"/><path transform="rotate(45 14.435 13.364)" stroke="#333" d="M14.435 13.364H17.435000000000002V15.364H14.435z"/><circle cx="17.111" cy="4.556" r="1.556" stroke="#0094FF"/><path d="M14.3202 8.39914C14.5863 7.06875 15.7544 6.11111 17.1111 6.11111V6.11111C18.4678 6.11111 19.636 7.06875 19.902 8.39914L20.2222 10H14L14.3202 8.39914Z" stroke="#0094FF"/></svg>

<?xml version="1.0" encoding="utf-8"?><svg width="24" height="24" fill="none" xmlns="http://www.w3.org/2000/svg" viewBox="0 0 24 24"><path d="M5.243 18.314C1 14.07 4.77 10.3 6.657 8.414l2.121 2.122c-1.414 1.414-3.535 3.535-1.414 5.656 1.697 1.697 4.243 0 5.657-1.414l2.121 2.121c-1.885 1.886-5.657 5.657-9.9 1.415z" stroke="#333"/><path stroke="#333" d="M8.071 7l2.121 2.121-1.414 1.415-2.121-2.122zM14.435 13.364l2.121 2.121-1.414 1.415-2.121-2.122z"/><circle cx="17.111" cy="4.556" r="1.556" stroke="#0094FF"/><path d="M14.32 8.4a2.846 2.846 0 012.791-2.289v0c1.357 0 2.525.958 2.791 2.288l.32 1.601H14l.32-1.6z" stroke="#0094FF"/></svg>
